src/images_karasa_jaga_svg/cmd/lc_verticalcaption.svg

<svg height="24" viewBox="0 0 24 24" width="24" xmlns="http://www.w3.org/2000/svg" xmlns:xlink="http://www.w3.org/1999/xlink"><linearGradient id="a" gradientUnits="userSpaceOnUse" x1="-.00098" x2="127.99722" y1="37.81918" y2="37.81918"><stop offset="0" stop-color="#fff"/><stop offset=".59375" stop-color="#fff"/><stop offset=".84375" stop-color="#f1f1f1"/><stop offset=".90625" stop-color="#eaeaea"/><stop offset="1" stop-color="#dfdfdf"/></linearGradient><linearGradient id="b" gradientUnits="userSpaceOnUse" x1="-.019534" x2="127.99722" y1="65.479744" y2="65.479744"><stop offset="0" stop-color="#7c9fcf"/><stop offset=".5" stop-color="#7c9ece"/><stop offset="1" stop-color="#7b9dcf"/></linearGradient><g transform="matrix(.171875 0 0 .171875 1.000155 .998251)"><g transform="matrix(0 -1 -1 0 130.90878 127.99902)"><path d="m63.99812 8.70889c-16.230164-.000117-34.602408 3.856091-46.5448 11.65599-11.9423931 7.799899-17.47285125 22.80347-17.47285125 35.092151-.00000392.0039-.00000392.0078 0 .01172.03214007 15.702231 12.80189525 29.779333 30.61914025 37.335937-.348726 15.795152-8.126152 13.932512-12.333984 20.554692-3.376919 5.63839 3.692264 11.69228 8.744141 7.48828 7.988091-3.45609 21.348784-10.01786 26.736328-22.279301 3.39461.377891 6.805825.720986 10.24414.726563h.0098c16.229818-.000239 31.76507-5.530199 43.707026-13.330078 11.94196-7.799879 20.29016-24.221045 20.29016-36.509464s-5.51234-21.290621-17.4543-29.0905c-11.94199-7.799879-30.314982-11.655752-46.5448-11.65599z" fill="url(#b)"/><path d="m63.99812 14.54678c-40.129621-1.776375-59.6168409 19.604085-58.1797606 40.910251.0300876 14.69949 13.0377726 28.069239 33.4003906 34.330078-.622132 9.583961-8.426553 18.058151-15.947266 26.576171 12.457238-4.51792 20.654363-13.95746 28.527344-23.771483 4.008979.568556 8.098784.85858 12.201172.865234 32.131967-.000473 54.02937-17.427994 58.17969-38 5.10271-25.292752-22.831536-43.625559-58.18157-40.910251z" fill="url(#a)"/></g><g fill="#06f"><path d="m52.3629 29.0923h5.8181v58.181h-5.8181z"/><path d="m63.9991 29.0923h5.8181v75.6353h-5.8181z"/><path d="m75.6353 29.0923h5.8181v58.181h-5.8181z"/><path d="m87.2715 29.0923h5.8181v75.6353h-5.8181z"/><path d="m98.9077 29.0923h5.8181v58.181h-5.8181z"/></g></g></svg>

<?xml version="1.0" encoding="UTF-8" standalone="no"?>
<!-- Created with Inkscape (http://www.inkscape.org/) -->

<svg
   xmlns:dc="http://purl.org/dc/elements/1.1/"
   xmlns:cc="http://creativecommons.org/ns#"
   xmlns:rdf="http://www.w3.org/1999/02/22-rdf-syntax-ns#"
   xmlns:svg="http://www.w3.org/2000/svg"
   xmlns="http://www.w3.org/2000/svg"
   xmlns:xlink="http://www.w3.org/1999/xlink"
   xmlns:sodipodi="http://sodipodi.sourceforge.net/DTD/sodipodi-0.dtd"
   xmlns:inkscape="http://www.inkscape.org/namespaces/inkscape"
   version="1.1"
   id="svg2"
   width="128"
   height="128"
   viewBox="0 0 128 128"
   sodipodi:docname="lc_verticalcaption.svg"
   inkscape:export-filename="/home/rizmut/Dokumen/Rizmut/Github/libreoffice-style-karasa-jaga/build/images_karasa_jaga/cmd/lc_verticalcaption.png"
   inkscape:export-xdpi="16.5"
   inkscape:export-ydpi="16.5"
   inkscape:version="0.92.3 (unknown)">
  <metadata
     id="metadata8">
    <rdf:RDF>
      <cc:Work
         rdf:about="">
        <dc:format>image/svg+xml</dc:format>
        <dc:type
           rdf:resource="http://purl.org/dc/dcmitype/StillImage" />
        <dc:title />
      </cc:Work>
    </rdf:RDF>
  </metadata>
  <defs
     id="defs6">
    <linearGradient
       inkscape:collect="always"
       id="linearGradient825">
      <stop
         style="stop-color:#f9f9fa;stop-opacity:1;"
         offset="0"
         id="stop821" />
      <stop
         style="stop-color:#f9f9fa;stop-opacity:0;"
         offset="1"
         id="stop823" />
    </linearGradient>
    <linearGradient
       inkscape:collect="always"
       xlink:href="#linearGradient825"
       id="linearGradient1536"
       x1="70.052383"
       y1="-18.468208"
       x2="62.030193"
       y2="84.412926"
       gradientUnits="userSpaceOnUse" />
    <linearGradient
       id="linearGradient3369">
      <stop
         id="stop3372"
         offset="0"
         style="stop-color:#ffffff;stop-opacity:1;" />
      <stop
         style="stop-color:#ffffff;stop-opacity:1;"
         offset="0.59375"
         id="stop3374" />
      <stop
         style="stop-color:#f1f1f1;stop-opacity:1;"
         offset="0.84375"
         id="stop3376" />
      <stop
         id="stop3378"
         offset="0.90625"
         style="stop-color:#eaeaea;stop-opacity:1;" />
      <stop
         id="stop3384"
         offset="1"
         style="stop-color:#dfdfdf;stop-opacity:1;" />
    </linearGradient>
    <linearGradient
       id="linearGradient7422">
      <stop
         style="stop-color:#7c9fcf;stop-opacity:1"
         offset="0"
         id="stop7424" />
      <stop
         id="stop5348"
         offset="0.5"
         style="stop-color:#7c9ece;stop-opacity:1" />
      <stop
         id="stop7426"
         offset="1"
         style="stop-color:#7b9dcf;stop-opacity:1" />
    </linearGradient>
    <linearGradient
       inkscape:collect="always"
       xlink:href="#linearGradient3369"
       id="linearGradient8528"
       x1="-0.00098000001"
       y1="37.81918"
       x2="127.99722"
       y2="37.81918"
       gradientUnits="userSpaceOnUse" />
    <linearGradient
       inkscape:collect="always"
       xlink:href="#linearGradient7422"
       id="linearGradient2041"
       x1="-0.019534189"
       y1="65.479744"
       x2="127.99722"
       y2="65.479744"
       gradientUnits="userSpaceOnUse" />
  </defs>
  <sodipodi:namedview
     pagecolor="#ffffff"
     bordercolor="#666666"
     borderopacity="1"
     objecttolerance="10"
     gridtolerance="10"
     guidetolerance="10"
     inkscape:pageopacity="0"
     inkscape:pageshadow="2"
     inkscape:window-width="1366"
     inkscape:window-height="706"
     id="namedview4"
     showgrid="true"
     inkscape:snap-page="true"
     inkscape:snap-global="true"
     inkscape:zoom="1.4142136"
     inkscape:cx="-21.669843"
     inkscape:cy="42.651705"
     inkscape:window-x="0"
     inkscape:window-y="0"
     inkscape:window-maximized="1"
     inkscape:current-layer="svg2"
     inkscape:snap-smooth-nodes="true">
    <inkscape:grid
       type="xygrid"
       id="grid27"
       spacingx="5.8181"
       spacingy="5.8181"
       empspacing="1" />
  </sodipodi:namedview>
  <g
     id="g837"
     transform="matrix(0,-1,-1,0,130.90878,127.99902)">
    <path
       cx="64"
       cy="64"
       r="42.122112"
       style="opacity:1;fill:url(#linearGradient1536);fill-opacity:1;stroke:none;stroke-width:3.85701394;stroke-linecap:round;stroke-linejoin:bevel;stroke-miterlimit:4;stroke-dasharray:none;stroke-dashoffset:0;stroke-opacity:0.73039216"
       id="circle1528"
       d=""
       inkscape:connector-curvature="0" />
    <path
       style="opacity:1;fill:url(#linearGradient2041);fill-opacity:1.0;stroke:none;stroke-width:5.29160166;stroke-linecap:square;stroke-linejoin:bevel;stroke-miterlimit:4;stroke-dasharray:none;stroke-dashoffset:0;stroke-opacity:0.73039216"
       d="M 63.99812,8.70889 C 47.767956,8.708773 29.395712,12.564981 17.45332,20.36488 5.5109269,28.164779 -0.01953125,43.16835 -0.01953125,55.457031 c -3.92e-6,0.0039 -3.92e-6,0.0078 0,0.01172 C 0.01260882,71.170982 12.782364,85.248084 30.599609,92.804688 30.250883,108.59984 22.473457,106.7372 18.265625,113.35938 c -3.376919,5.63839 3.692264,11.69228 8.744141,7.48828 7.988091,-3.45609 21.348784,-10.01786 26.736328,-22.279301 3.39461,0.377891 6.805825,0.720986 10.24414,0.726563 h 0.0098 c 16.229818,-2.39e-4 31.76507,-5.530199 43.707026,-13.330078 11.94196,-7.799879 20.29016,-24.221045 20.29016,-36.509464 0,-12.288419 -5.51234,-21.290621 -17.4543,-29.0905 C 98.60093,12.565001 80.227938,8.709128 63.99812,8.70889 Z"
       id="path917"
       inkscape:connector-curvature="0"
       sodipodi:nodetypes="csccccccccsscc" />
    <path
       id="rect8502"
       d="M 63.99812,14.54678 C 23.868499,12.770405 4.3812791,34.150865 5.8183594,55.457031 5.848447,70.156521 18.856132,83.52627 39.21875,89.787109 38.596618,99.37107 30.792197,107.84526 23.271484,116.36328 35.728722,111.84536 43.925847,102.40582 51.798828,92.591797 55.807807,93.160353 59.897612,93.450377 64,93.457031 c 32.131967,-4.73e-4 54.02937,-17.427994 58.17969,-38 C 127.2824,30.164279 99.348154,11.831472 63.99812,14.54678 Z"
       style="opacity:1;fill:url(#linearGradient8528);fill-opacity:1;stroke:none;stroke-width:5.29160166;stroke-linecap:square;stroke-linejoin:bevel;stroke-miterlimit:4;stroke-dasharray:none;stroke-dashoffset:0;stroke-opacity:0.73039216"
       inkscape:connector-curvature="0"
       sodipodi:nodetypes="ccccccsc" />
  </g>
  <rect
     style="opacity:1;fill:#0066ff;fill-opacity:1;stroke:none;stroke-width:8;stroke-linecap:round;stroke-linejoin:round;stroke-miterlimit:4;stroke-dasharray:none;stroke-dashoffset:0;stroke-opacity:1"
     id="rect840"
     width="5.8181"
     height="58.181"
     x="52.3629"
     y="29.0923"
     ry="0" />
  <rect
     ry="0"
     y="29.0923"
     x="63.9991"
     height="75.6353"
     width="5.8181"
     id="rect842"
     style="opacity:1;fill:#0066ff;fill-opacity:1;stroke:none;stroke-width:9.12140369;stroke-linecap:round;stroke-linejoin:round;stroke-miterlimit:4;stroke-dasharray:none;stroke-dashoffset:0;stroke-opacity:1" />
  <rect
     ry="0"
     y="29.0923"
     x="75.6353"
     height="58.181"
     width="5.8181"
     id="rect844"
     style="opacity:1;fill:#0066ff;fill-opacity:1;stroke:none;stroke-width:8;stroke-linecap:round;stroke-linejoin:round;stroke-miterlimit:4;stroke-dasharray:none;stroke-dashoffset:0;stroke-opacity:1" />
  <rect
     style="opacity:1;fill:#0066ff;fill-opacity:1;stroke:none;stroke-width:9.12140369;stroke-linecap:round;stroke-linejoin:round;stroke-miterlimit:4;stroke-dasharray:none;stroke-dashoffset:0;stroke-opacity:1"
     id="rect846"
     width="5.8181"
     height="75.6353"
     x="87.2715"
     y="29.0923"
     ry="0" />
  <rect
     style="opacity:1;fill:#0066ff;fill-opacity:1;stroke:none;stroke-width:8;stroke-linecap:round;stroke-linejoin:round;stroke-miterlimit:4;stroke-dasharray:none;stroke-dashoffset:0;stroke-opacity:1"
     id="rect848"
     width="5.8181"
     height="58.181"
     x="98.9077"
     y="29.0923"
     ry="0" />
</svg>
